icons/square/48/kongdash.svg

<svg width="48" height="48" version="1.1" viewBox="0 0 48 48.000001" xmlns="http://www.w3.org/2000/svg">
 <defs>
  <linearGradient id="linearGradient4501" x1="-47" x2="-1" y1="2.8779e-15" y2="6.1232e-17" gradientUnits="userSpaceOnUse">
   <stop style="stop-color:#218de1" offset="0"/>
   <stop style="stop-color:#3396e3" offset="1"/>
  </linearGradient>
 </defs>
 <g transform="translate(0 3.949e-5)">
  <path d="m1 43v0.25c0 2.216 1.784 4 4 4h38c2.216 0 4-1.784 4-4v-0.25c0 2.216-1.784 4-4 4h-38c-2.216 0-4-1.784-4-4zm0 0.5v0.5c0 2.216 1.784 4 4 4h38c2.216 0 4-1.784 4-4v-0.5c0 2.216-1.784 4-4 4h-38c-2.216 0-4-1.784-4-4z" style="opacity:.02"/>
  <path d="m1 43.25v0.25c0 2.216 1.784 4 4 4h38c2.216 0 4-1.784 4-4v-0.25c0 2.216-1.784 4-4 4h-38c-2.216 0-4-1.784-4-4z" style="opacity:.05"/>
  <path d="m1 43v0.25c0 2.216 1.784 4 4 4h38c2.216 0 4-1.784 4-4v-0.25c0 2.216-1.784 4-4 4h-38c-2.216 0-4-1.784-4-4z" style="opacity:.1"/>
 </g>
 <rect transform="rotate(-90)" x="-47" y="1" width="46" height="46" rx="4" style="fill:url(#linearGradient4501)"/>
 <g transform="translate(0 3.949e-5)">
  <g transform="translate(0 -1004.4)">
   <path d="m1 1043.4v4c0 2.216 1.784 4 4 4h38c2.216 0 4-1.784 4-4v-4c0 2.216-1.784 4-4 4h-38c-2.216 0-4-1.784-4-4z" style="opacity:.1"/>
  </g>
 </g>
 <path d="m24 9a15 15 0 0 0 -15 15 15 15 0 0 0 15 15 15 15 0 0 0 15 -15 15 15 0 0 0 -15 -15m0 2a13 13 0 0 1 6.898 2h-1.898l-8 10v-10h-3.92a13 13 0 0 1 6.92 -2m-7 2.05v21.888a13 13 0 0 1 -6 -10.938 13 13 0 0 1 6 -10.95m15.83 1.434a13 13 0 0 1 4.17 9.516 13 13 0 0 1 -3.65 9.02l-6.932-10.416 6.412-8.124m-8.83 11.27 6 9.25h0.918a13 13 0 0 1 -6.918 2 13 13 0 0 1 -6.9 -2h3.9v-6z" style="opacity:.1"/>
 <path d="M 24,8 A 15,15 0 0 0 9,23 15,15 0 0 0 24,38 15,15 0 0 0 39,23 15,15 0 0 0 24,8 m 0,2 A 13,13 0 0 1 37,23 13,13 0 0 1 24,36 13,13 0 0 1 11,23 13,13 0 0 1 24,10" style="fill:#f9f9f9"/>
 <path d="m17 12v22h4v-6l3-3.25 6 9.25h3l1-1-7.582-11.396 7.582-9.604h-5l-8 10v-10" style="fill:#f9f9f9"/>
</svg>

<svg width="48" height="48" viewBox="0 0 48 48.000001" xmlns="http://www.w3.org/2000/svg">
  <defs>
    <linearGradient id="a" x1="-47" x2="-1" gradientUnits="userSpaceOnUse">
      <stop offset="0" stop-color="#218de1"/>
      <stop offset="1" stop-color="#3396e3"/>
    </linearGradient>
  </defs>
  <path d="M1 43v.25c0 2.216 1.784 4 4 4h38c2.216 0 4-1.784 4-4V43c0 2.216-1.784 4-4 4H5c-2.216 0-4-1.784-4-4zm0 .5v.5c0 2.216 1.784 4 4 4h38c2.216 0 4-1.784 4-4v-.5c0 2.216-1.784 4-4 4H5c-2.216 0-4-1.784-4-4z" opacity=".02"/>
  <path d="M1 43.25v.25c0 2.216 1.784 4 4 4h38c2.216 0 4-1.784 4-4v-.25c0 2.216-1.784 4-4 4H5c-2.216 0-4-1.784-4-4z" opacity=".05"/>
  <path d="M1 43v.25c0 2.216 1.784 4 4 4h38c2.216 0 4-1.784 4-4V43c0 2.216-1.784 4-4 4H5c-2.216 0-4-1.784-4-4z" opacity=".1"/>
  <rect transform="rotate(-90)" x="-47" y="1" width="46" height="46" rx="4" fill="url(#a)"/>
  <path d="M1 39v4c0 2.216 1.784 4 4 4h38c2.216 0 4-1.784 4-4v-4c0 2.216-1.784 4-4 4H5c-2.216 0-4-1.784-4-4zM24 9A15 15 0 0 0 9 24a15 15 0 0 0 15 15 15 15 0 0 0 15-15A15 15 0 0 0 24 9m0 2a13 13 0 0 1 6.898 2H29l-8 10V13h-3.92A13 13 0 0 1 24 11m-7 2.05v21.888A13 13 0 0 1 11 24a13 13 0 0 1 6-10.95m15.83 1.434A13 13 0 0 1 37 24a13 13 0 0 1-3.65 9.02l-6.932-10.416 6.412-8.124M24 25.75L30 35h.918A13 13 0 0 1 24 37a13 13 0 0 1-6.9-2H21v-6z" opacity=".1"/>
  <path d="M24 8A15 15 0 0 0 9 23a15 15 0 0 0 15 15 15 15 0 0 0 15-15A15 15 0 0 0 24 8m0 2a13 13 0 0 1 13 13 13 13 0 0 1-13 13 13 13 0 0 1-13-13 13 13 0 0 1 13-13" fill="#f9f9f9"/>
  <path d="M17 12v22h4v-6l3-3.25L30 34h3l1-1-7.582-11.396L34 12h-5l-8 10V12" fill="#f9f9f9"/>
</svg>
